X:1
T:Voi che'l mio mal
T:Voi che'l mio mal
T:Domenico Obizzi
T:Arietta
T:Source : Madrigali et arie a voce sola---Libro I ---Venetia---A.Vincenti---1627. Editor : André Vierendeels (26/02/16).
T:Notes : Original clefs :C1, F4 Editorial accidentals above the staff Notation in original print : "Alfabeto d'ariette per la Chitarra alla Spagnola", realised by the editor Note values have been halved in 3-beat measures Dotted brackets indicate black notes
T:©
T:©
C:Domenico Obizzi
Z:©
%%score 1 { ( 2 3 ) | 4 }
L:1/8
Q:1/4=112
M:4/4
K:C
V:1 treble nm="Soprano" snm="S"
V:2 treble nm="MusicXML Part"
V:3 treble 
V:4 bass 
V:1
 d4 cBAG | A4 A2 z A | GFED E4 | D4 z4 :: z2 AA d2 cB | B4 A4 |[M:3/4] z2 c2 B2 | A2 G3 F | %8
w: Voi che'l mio mal sa-|pe- te e'l|mio lan- guir ve- de-|te,|di- te'A- man- ti per|Di- o,|se pro|ta- te do-|
w: Non hà'il mon- do tor-|men- to, pa-|ri'à quel- lo, ch'io sen-|to,|ne for- se'an- co'hai l'in-|fer- no,|peg- gior|mar- tir del|
w: Io se- guo chi mi|fug- ge et|a- mi chi mi strug-|ge,|e men- tre'a- man- d'io|mo- ro,|la ca-|gion del mio|
w: Se'l mio cor pie- ta|chie- de, sde-|gno'e d'a- mor mer- ce-|de,|e la do- glia'in- fi-|ni- ta,|sol per-|ch'io mo- ra'o-|
 E2 G4- | G2 F2 E2 | E2 D4 | C4 z2 | z6 | z2 e2 d2 | c2 B3 A | B2 G4- | G2 G2 A2 | A6 | G6 :| %19
w: lor si-|* mil' al|mi- *|o,||se pro|na te do-|lor si-|* mil' al|mi-|o.|
w: mio mar-|* tir e-|ter- *|no,||peg- gior|mar- tir del|mio mar-|* tir e-|ter-|no.|
w: mal pre-|* go'e a-|do- *|ro,||la ca-|gion del mio|mal pre-|* go'e a-|do-|ro.|
w: gn'hor mi|_ tie- ne'in|vi- *|ta,||sol per-|ch'io mo- ra'o-|gn'hor mi|_ tie- ne'in|vi-|ta.|
V:2
 B4 G4 | A6 E2 | G4 A4 | A4 z4 :: G2 A4 c2 | B4 c4 |[M:3/4] A4 B2 | c2 G2 A2 | G4 F2 | B2 A4 | %10
 A2 G4 | G4 G2 | G2 B2 A2 | B2 e2 d2 | G2 d4 | d4 d2 | c4 e2 | d6 | B6 :| %19
V:3
 G4 C2 E2 | ^F6 B,2 | D4 ^C4 | D4 z4 :: G2 F4 E2 | ^G4 E4 |[M:3/4] E4 D2 | A2 C2 F2 | E2 C2 D2 | %9
 G2 C4- | C4 B,2 | C4 D2 | C2 D4 | G4 ^F2 | E2 D4 | B4 A2 | G4 A2 | G4 ^F2 | G6 :| %19
V:4
 G,2 F,2 E,4 | D,4 D,2 C,2 | B,,4 A,,4 | D,3 E, ^F,2 D,2 :: G,2 F,E, D,2 A,,2 | E,4 A,,4 | %6
[M:3/4] A,,2 A,2 G,2 | F,2 E,3 D, | C,2 C,2 D,2 | E,2 F,4 | F,2 G,2 G,,2 | C,2 C2 B,2 | %12
 A,2 G,3 F, | E,2 C,2 D,2 | E,2 ^F,3 F, | G,2 G,2 F,2 | E,2 C,4 | D,6 | G,,6 :| %19

